X: 29704
T: Now She's Purring
R: reel
M: 4/4
K: Gmajor
G2GA Bded|B2BA GEED|BGAF GABd|1 (3efg fa gedB:|2 (3efg fa g3||
d|:~g3a bgaf|gaba gfed|1 ~B3A GA (3B^cd|
egfa gfef:|2 BdAB GA (3B^cd|egfa gedB||

